Newaita-dark/actions/24/debug-step-out.svg

<svg height="24" viewBox="0 0 24 24" width="24" xmlns="http://www.w3.org/2000/svg"><g fill="#e0e0e0"><path d="m3.96875 2.171875c-1.097656 0-1.984375.886719-1.984375 1.984375v15.875c0 1.101562.886719 1.988281 1.984375 1.988281h15.875c1.101562 0 1.988281-.886719 1.988281-1.988281v-11.90625h-1.988281v10.914062c0 .550782-.441406.992188-.992188.992188h-13.890624c-.550782 0-.992188-.441406-.992188-.992188v-13.890624c0-.550782.441406-.992188.992188-.992188h10.914062v-1.984375zm0 0"/><path d="m2.976562 8.125h17.863282v.992188h-17.863282zm0 0"/><path d="m9.425781 10.589844c-.429687 0-.804687.066406-1.121093.257812-.316407.1875-.539063.492188-.664063.820313-.214844.578125-.21875 1.257812-.21875 2.09375l-.707031.355469c-.171875.085937-.285156.261718-.285156.457031 0 .195312.113281.375.285156.460937l.707031.355469c0 .835937.003906 1.515625.21875 2.09375.125.328125.347656.632813.664063.820313.316406.1875.691406.257812 1.121093.257812.1875.003906.359375-.09375.453125-.253906s.09375-.359375 0-.519532c-.09375-.160156-.265625-.257812-.453125-.253906-.3125 0-.496093-.054687-.597656-.113281-.101563-.0625-.160156-.128906-.222656-.296875-.125-.339844-.152344-1.0625-.152344-2.054688 0-.195312-.109375-.371093-.285156-.457031l-.070313-.039062.070313-.035157c.175781-.085937.285156-.265624.285156-.460937 0-.992187.027344-1.710937.152344-2.050781.0625-.167969.121093-.234375.222656-.296875.101563-.058594.285156-.113281.597656-.113281.1875 0 .359375-.097657.449219-.257813.09375-.15625.09375-.355469 0-.515625-.089844-.160156-.261719-.257812-.449219-.253906zm0 0"/><path d="m14.386719 10.589844c-.183594-.003906-.355469.09375-.449219.253906s-.09375.359375 0 .515625c.09375.160156.265625.257813.449219.257813.316406 0 .5.054687.597656.113281.101563.0625.160156.128906.222656.296875.128907.339844.15625 1.058594.15625 2.050781 0 .195313.109375.375.28125.460937l.074219.035157-.074219.039062c-.171875.085938-.28125.261719-.28125.457031 0 .992188-.027343 1.714844-.15625 2.054688-.0625.167969-.121093.234375-.222656.296875-.097656.058594-.28125.113281-.597656.113281-.183594-.003906-.359375.09375-.453125.253906-.09375.160157-.09375.359376 0 .519532s.269531.257812.453125.253906c.429687 0 .808593-.070312 1.125-.257812.316406-.1875.539062-.492188.660156-.820313.21875-.578125.222656-1.257813.21875-2.09375l.707031-.355469c.175782-.085937.285156-.265625.285156-.460937 0-.195313-.109374-.371094-.285156-.457031l-.707031-.355469c.003906-.835938 0-1.515625-.21875-2.09375-.121094-.328125-.34375-.632813-.660156-.820313-.316407-.191406-.695313-.257812-1.125-.257812zm0 0"/><path d="m17.859375 7.132812v-4.960937l3.972656 2.480469zm0 0"/></g></svg>

<?xml version="1.0" encoding="UTF-8"?>
<svg xmlns="http://www.w3.org/2000/svg" xmlns:xlink="http://www.w3.org/1999/xlink" width="24px" height="24px" viewBox="0 0 24 24" version="1.1">
<g id="surface1">
<path style=" stroke:none;fill-rule:nonzero;fill:rgb(87.843138%,87.843138%,87.843138%);fill-opacity:1;" d="M 3.96875 2.171875 C 2.871094 2.171875 1.984375 3.058594 1.984375 4.15625 L 1.984375 20.03125 C 1.984375 21.132812 2.871094 22.019531 3.96875 22.019531 L 19.84375 22.019531 C 20.945312 22.019531 21.832031 21.132812 21.832031 20.03125 L 21.832031 8.125 L 19.84375 8.125 L 19.84375 19.039062 C 19.84375 19.589844 19.402344 20.03125 18.851562 20.03125 L 4.960938 20.03125 C 4.410156 20.03125 3.96875 19.589844 3.96875 19.039062 L 3.96875 5.148438 C 3.96875 4.597656 4.410156 4.15625 4.960938 4.15625 L 15.875 4.15625 L 15.875 2.171875 Z M 3.96875 2.171875 "/>
<path style=" stroke:none;fill-rule:nonzero;fill:rgb(87.843138%,87.843138%,87.843138%);fill-opacity:1;" d="M 2.976562 8.125 L 20.839844 8.125 L 20.839844 9.117188 L 2.976562 9.117188 Z M 2.976562 8.125 "/>
<path style=" stroke:none;fill-rule:nonzero;fill:rgb(87.843138%,87.843138%,87.843138%);fill-opacity:1;" d="M 9.425781 10.589844 C 8.996094 10.589844 8.621094 10.65625 8.304688 10.847656 C 7.988281 11.035156 7.765625 11.339844 7.640625 11.667969 C 7.425781 12.246094 7.421875 12.925781 7.421875 13.761719 L 6.714844 14.117188 C 6.542969 14.203125 6.429688 14.378906 6.429688 14.574219 C 6.429688 14.769531 6.542969 14.949219 6.714844 15.035156 L 7.421875 15.390625 C 7.421875 16.226562 7.425781 16.90625 7.640625 17.484375 C 7.765625 17.8125 7.988281 18.117188 8.304688 18.304688 C 8.621094 18.492188 8.996094 18.5625 9.425781 18.5625 C 9.613281 18.566406 9.785156 18.46875 9.878906 18.308594 C 9.972656 18.148438 9.972656 17.949219 9.878906 17.789062 C 9.785156 17.628906 9.613281 17.53125 9.425781 17.535156 C 9.113281 17.535156 8.929688 17.480469 8.828125 17.421875 C 8.726562 17.359375 8.667969 17.292969 8.605469 17.125 C 8.480469 16.785156 8.453125 16.0625 8.453125 15.070312 C 8.453125 14.875 8.34375 14.699219 8.167969 14.613281 L 8.097656 14.574219 L 8.167969 14.539062 C 8.34375 14.453125 8.453125 14.273438 8.453125 14.078125 C 8.453125 13.085938 8.480469 12.367188 8.605469 12.027344 C 8.667969 11.859375 8.726562 11.792969 8.828125 11.730469 C 8.929688 11.671875 9.113281 11.617188 9.425781 11.617188 C 9.613281 11.617188 9.785156 11.519531 9.875 11.359375 C 9.96875 11.203125 9.96875 11.003906 9.875 10.84375 C 9.785156 10.683594 9.613281 10.585938 9.425781 10.589844 Z M 9.425781 10.589844 "/>
<path style=" stroke:none;fill-rule:nonzero;fill:rgb(87.843138%,87.843138%,87.843138%);fill-opacity:1;" d="M 14.386719 10.589844 C 14.203125 10.585938 14.03125 10.683594 13.9375 10.84375 C 13.84375 11.003906 13.84375 11.203125 13.9375 11.359375 C 14.03125 11.519531 14.203125 11.617188 14.386719 11.617188 C 14.703125 11.617188 14.886719 11.671875 14.984375 11.730469 C 15.085938 11.792969 15.144531 11.859375 15.207031 12.027344 C 15.335938 12.367188 15.363281 13.085938 15.363281 14.078125 C 15.363281 14.273438 15.472656 14.453125 15.644531 14.539062 L 15.71875 14.574219 L 15.644531 14.613281 C 15.472656 14.699219 15.363281 14.875 15.363281 15.070312 C 15.363281 16.0625 15.335938 16.785156 15.207031 17.125 C 15.144531 17.292969 15.085938 17.359375 14.984375 17.421875 C 14.886719 17.480469 14.703125 17.535156 14.386719 17.535156 C 14.203125 17.53125 14.027344 17.628906 13.933594 17.789062 C 13.839844 17.949219 13.839844 18.148438 13.933594 18.308594 C 14.027344 18.46875 14.203125 18.566406 14.386719 18.5625 C 14.816406 18.5625 15.195312 18.492188 15.511719 18.304688 C 15.828125 18.117188 16.050781 17.8125 16.171875 17.484375 C 16.390625 16.90625 16.394531 16.226562 16.390625 15.390625 L 17.097656 15.035156 C 17.273438 14.949219 17.382812 14.769531 17.382812 14.574219 C 17.382812 14.378906 17.273438 14.203125 17.097656 14.117188 L 16.390625 13.761719 C 16.394531 12.925781 16.390625 12.246094 16.171875 11.667969 C 16.050781 11.339844 15.828125 11.035156 15.511719 10.847656 C 15.195312 10.65625 14.816406 10.589844 14.386719 10.589844 Z M 14.386719 10.589844 "/>
<path style=" stroke:none;fill-rule:nonzero;fill:rgb(87.843138%,87.843138%,87.843138%);fill-opacity:1;" d="M 17.859375 7.132812 L 17.859375 2.171875 L 21.832031 4.652344 Z M 17.859375 7.132812 "/>
</g>
</svg>
